X:661
T:Si la nieve resbala (MG 33) (Arrg.)
R:Tonada
C:Tradicional
S:Msica Tradicional Asturiana, (C) Tello & Tito. Asturies, 2001.
S:http://pagina.de/MusTradAst <telloytito@asturies.org>
A:Asturies
G:Arrg.
Z:Mtodu de Gaita 33
M:6/8
L:1/8
Q:3/8=80
E:Nivel 3
K:G
|:"G"B2 B "D7"BcA| "G"B2 B "D7"BcA|"Bm"B3 "Bm"B3|
"G"B2 B "D7"BcA| "G"B2B "D7"BcA| "G" B2B "D7"AGF|
"D" E3/2F/4E/4D/2E/2 "Em"GFG|
"G"B3/2c/4B/4A/2B/2 "D7"AGF|
"Em"E z2 GF"Em"E| "D"D3/2F/4D/4E/2D/2 "G"GFG|
"G"BBA "G"GGF|
[1 "Em"E4 z2 :| [2 "Em"e3 "D"d3||
